Newaita-dark/apps/32/partitionmanager.svg

<?xml version="1.0" encoding="UTF-8"?>
<svg xmlns="http://www.w3.org/2000/svg" xmlns:xlink="http://www.w3.org/1999/xlink" width="32pt" height="32pt" viewBox="0 0 32 32" version="1.1">
<defs>
<linearGradient id="linear0" gradientUnits="userSpaceOnUse" x1="254" y1="233.5" x2="254" y2="254.666672" gradientTransform="matrix(0.062506,0,0,0.062506,-0.00000381506,13.438785)">
<stop offset="0" style="stop-color:rgb(0%,0%,0%);stop-opacity:0.27451;"/>
<stop offset="1" style="stop-color:rgb(0%,0%,0%);stop-opacity:0;"/>
</linearGradient>
<radialGradient id="radial0" gradientUnits="userSpaceOnUse" cx="450.908936" cy="189.579361" fx="450.908936" fy="189.579361" r="21.166656" gradientTransform="matrix(0.00000017417,-0.0781325,-0.140638,-0.000000101539,48.823041,63.595333)">
<stop offset="0" style="stop-color:rgb(0%,0%,0%);stop-opacity:0.313725;"/>
<stop offset="0.222222" style="stop-color:rgb(0%,0%,0%);stop-opacity:0.27451;"/>
<stop offset="1" style="stop-color:rgb(0%,0%,0%);stop-opacity:0;"/>
</radialGradient>
<radialGradient id="radial1" gradientUnits="userSpaceOnUse" cx="450.908936" cy="189.579361" fx="450.908936" fy="189.579361" r="21.166656" gradientTransform="matrix(-0.00000017417,0.0781325,0.140638,0.000000101539,-17.070008,-7.527479)">
<stop offset="0" style="stop-color:rgb(0%,0%,0%);stop-opacity:0.313725;"/>
<stop offset="0.222222" style="stop-color:rgb(0%,0%,0%);stop-opacity:0.27451;"/>
<stop offset="1" style="stop-color:rgb(0%,0%,0%);stop-opacity:0;"/>
</radialGradient>
<radialGradient id="radial2" gradientUnits="userSpaceOnUse" cx="450.908936" cy="189.579361" fx="450.908936" fy="189.579361" r="21.166656" gradientTransform="matrix(-0.00000017417,-0.0781325,0.140638,-0.000000101539,-17.070008,63.595333)">
<stop offset="0" style="stop-color:rgb(0%,0%,0%);stop-opacity:0.313725;"/>
<stop offset="0.222222" style="stop-color:rgb(0%,0%,0%);stop-opacity:0.27451;"/>
<stop offset="1" style="stop-color:rgb(0%,0%,0%);stop-opacity:0;"/>
</radialGradient>
<radialGradient id="radial3" gradientUnits="userSpaceOnUse" cx="450.908936" cy="189.579361" fx="450.908936" fy="189.579361" r="21.166656" gradientTransform="matrix(0.00000017417,0.0781325,-0.140638,0.000000101539,48.823039,-7.527479)">
<stop offset="0" style="stop-color:rgb(0%,0%,0%);stop-opacity:0.313725;"/>
<stop offset="0.222222" style="stop-color:rgb(0%,0%,0%);stop-opacity:0.27451;"/>
<stop offset="1" style="stop-color:rgb(0%,0%,0%);stop-opacity:0;"/>
</radialGradient>
<linearGradient id="linear1" gradientUnits="userSpaceOnUse" x1="306.916656" y1="-25.791676" x2="305.954559" y2="-141.414581" gradientTransform="matrix(0.0753497,0,0,0.217412,-5.854013,33.641348)">
<stop offset="0" style="stop-color:rgb(61.960784%,61.960784%,61.960784%);stop-opacity:1;"/>
<stop offset="1" style="stop-color:rgb(87.843137%,87.843137%,87.843137%);stop-opacity:1;"/>
</linearGradient>
<linearGradient id="linear2" gradientUnits="userSpaceOnUse" x1="254" y1="-105.166656" x2="254" y2="85.333336" gradientTransform="matrix(0.062506,0,0,0.062506,0,13.438783)">
<stop offset="0" style="stop-color:rgb(12.941176%,58.823529%,95.294118%);stop-opacity:1;"/>
<stop offset="1" style="stop-color:rgb(11.764706%,53.333333%,89.803922%);stop-opacity:1;"/>
</linearGradient>
<linearGradient id="linear3" gradientUnits="userSpaceOnUse" x1="254" y1="159.416672" x2="254" y2="191.166672" gradientTransform="matrix(1,0,0,1,0,-21.166668)">
<stop offset="0" style="stop-color:rgb(25.882353%,25.882353%,25.882353%);stop-opacity:1;"/>
<stop offset="1" style="stop-color:rgb(38.039216%,38.039216%,38.039216%);stop-opacity:1;"/>
</linearGradient>
<linearGradient id="linear4" gradientUnits="userSpaceOnUse" x1="254" y1="-105.166656" x2="254" y2="85.333336" gradientTransform="matrix(0.062506,0,0,0.062506,0,13.438783)">
<stop offset="0" style="stop-color:rgb(12.941176%,58.823529%,95.294118%);stop-opacity:1;"/>
<stop offset="1" style="stop-color:rgb(11.764706%,53.333333%,89.803922%);stop-opacity:1;"/>
</linearGradient>
<linearGradient id="linear5" gradientUnits="userSpaceOnUse" x1="1120" y1="775.118103" x2="1120" y2="415.118103" gradientTransform="matrix(0.016538,0,0,0.016538,0,0)">
<stop offset="0" style="stop-color:rgb(100%,83.529412%,30.980392%);stop-opacity:1;"/>
<stop offset="1" style="stop-color:rgb(100%,87.843137%,50.980392%);stop-opacity:1;"/>
</linearGradient>
<linearGradient id="linear6" gradientUnits="userSpaceOnUse" x1="1040" y1="495.117188" x2="1040" y2="775.117188" gradientTransform="matrix(0.016538,0,0,-0.016538,0,25.637849)">
<stop offset="0" style="stop-color:rgb(95.686275%,26.27451%,21.176471%);stop-opacity:1;"/>
<stop offset="1" style="stop-color:rgb(89.803922%,45.098039%,45.098039%);stop-opacity:1;"/>
</linearGradient>
</defs>
<g id="surface1">
<path style=" stroke:none;fill-rule:nonzero;fill:url(#linear0);" d="M 9.261719 28.035156 L 22.492188 28.035156 L 22.492188 29.355469 L 9.261719 29.355469 Z M 9.261719 28.035156 "/>
<path style=" stroke:none;fill-rule:nonzero;fill:url(#radial0);" d="M 22.492188 28.035156 L 25.136719 28.035156 L 25.136719 26.710938 L 22.492188 26.710938 Z M 22.492188 28.035156 "/>
<path style=" stroke:none;fill-rule:nonzero;fill:url(#radial1);" d="M 9.261719 28.035156 L 6.613281 28.035156 L 6.613281 29.355469 L 9.261719 29.355469 Z M 9.261719 28.035156 "/>
<path style=" stroke:none;fill-rule:nonzero;fill:url(#radial2);" d="M 9.261719 28.035156 L 6.613281 28.035156 L 6.613281 26.710938 L 9.261719 26.710938 Z M 9.261719 28.035156 "/>
<path style=" stroke:none;fill-rule:nonzero;fill:url(#radial3);" d="M 22.492188 28.035156 L 25.136719 28.035156 L 25.136719 29.355469 L 22.492188 29.355469 Z M 22.492188 28.035156 "/>
<path style=" stroke:none;fill-rule:nonzero;fill:url(#linear1);" d="M 7.9375 2.894531 L 23.816406 2.894531 C 24.546875 2.894531 25.136719 3.488281 25.136719 4.21875 L 25.136719 26.710938 C 25.136719 27.441406 24.546875 28.035156 23.816406 28.035156 L 7.9375 28.035156 C 7.207031 28.035156 6.613281 27.441406 6.613281 26.710938 L 6.613281 4.21875 C 6.613281 3.488281 7.207031 2.894531 7.9375 2.894531 Z M 7.9375 2.894531 "/>
<path style=" stroke:none;fill-rule:nonzero;fill:rgb(0%,0%,0%);fill-opacity:0.196078;" d="M 7.9375 28.035156 C 7.207031 28.035156 6.613281 27.445312 6.613281 26.710938 L 6.613281 26.546875 C 6.613281 27.277344 7.207031 27.867188 7.9375 27.867188 L 23.816406 27.867188 C 24.546875 27.867188 25.136719 27.277344 25.136719 26.546875 L 25.136719 26.710938 C 25.136719 27.445312 24.546875 28.035156 23.816406 28.035156 Z M 7.9375 28.035156 "/>
<path style=" stroke:none;fill-rule:nonzero;fill:rgb(90.196079%,90.196079%,90.196079%);fill-opacity:0.937255;" d="M 7.9375 2.894531 C 7.207031 2.894531 6.613281 3.484375 6.613281 4.21875 L 6.613281 4.382812 C 6.613281 3.652344 7.207031 3.058594 7.9375 3.0625 L 23.816406 3.0625 C 24.546875 3.058594 25.136719 3.652344 25.136719 4.382812 L 25.136719 4.21875 C 25.136719 3.484375 24.546875 2.894531 23.816406 2.894531 Z M 7.9375 2.894531 "/>
<path style=" stroke:none;fill-rule:nonzero;fill:rgb(12.941177%,12.941177%,12.941177%);fill-opacity:1;" d="M 7.9375 2.800781 C 7.15625 2.800781 6.523438 3.4375 6.523438 4.21875 L 6.523438 26.710938 C 6.523438 27.496094 7.15625 28.128906 7.9375 28.128906 L 23.816406 28.128906 C 24.597656 28.128906 25.230469 27.496094 25.230469 26.710938 L 25.230469 4.21875 C 25.230469 3.4375 24.597656 2.800781 23.816406 2.800781 Z M 7.9375 2.988281 L 23.816406 2.988281 C 24.496094 2.988281 25.042969 3.535156 25.042969 4.21875 L 25.042969 26.710938 C 25.042969 27.394531 24.496094 27.941406 23.816406 27.941406 L 7.9375 27.941406 C 7.253906 27.941406 6.710938 27.394531 6.710938 26.710938 L 6.710938 4.21875 C 6.710938 3.535156 7.253906 2.988281 7.9375 2.988281 Z M 7.9375 2.988281 "/>
<path style=" stroke:none;fill-rule:nonzero;fill:url(#linear2);" d="M 15.875 6.867188 C 19.164062 6.867188 21.832031 9.53125 21.832031 12.820312 C 21.832031 16.105469 19.164062 18.773438 15.875 18.773438 C 12.589844 18.773438 9.921875 16.105469 9.921875 12.820312 C 9.921875 9.53125 12.589844 6.867188 15.875 6.867188 Z M 15.875 6.867188 "/>
<path style="fill-rule:nonzero;fill:url(#linear3);stroke-width:3;stroke-linecap:round;stroke-linejoin:miter;stroke:rgb(12.941177%,12.941177%,12.941177%);stroke-opacity:1;stroke-miterlimit:4;" d="M 158.734842 138.278764 L 349.279146 138.278764 C 355.09109 138.278764 359.840637 142.965816 359.840637 148.840255 L 359.840637 159.401746 C 359.840637 165.276185 355.09109 170.025732 349.279146 170.025732 L 158.734842 170.025732 C 152.922897 170.025732 148.17335 165.276185 148.17335 159.401746 L 148.17335 148.840255 C 148.17335 142.965816 152.922897 138.278764 158.734842 138.278764 Z M 158.734842 138.278764 " transform="matrix(0.062506,0,0,0.062506,0,13.438783)"/>
<path style="fill-rule:nonzero;fill:rgb(74.117649%,74.117649%,74.117649%);fill-opacity:0.392157;stroke-width:2.999999;stroke-linecap:round;stroke-linejoin:miter;stroke:rgb(12.941177%,12.941177%,12.941177%);stroke-opacity:1;stroke-miterlimit:4;" d="M 137.611859 -147.506445 C 143.423804 -147.506445 148.17335 -142.756899 148.17335 -136.944954 C 148.17335 -131.070515 143.423804 -126.320968 137.611859 -126.320968 C 131.73742 -126.320968 126.987873 -131.070515 126.987873 -136.944954 C 126.987873 -142.756899 131.73742 -147.506445 137.611859 -147.506445 Z M 137.611859 -147.506445 " transform="matrix(0.062506,0,0,0.062506,0,13.438783)"/>
<path style="fill-rule:nonzero;fill:rgb(74.117649%,74.117649%,74.117649%);fill-opacity:0.392157;stroke-width:3;stroke-linecap:round;stroke-linejoin:miter;stroke:rgb(12.941177%,12.941177%,12.941177%);stroke-opacity:1;stroke-miterlimit:4;" d="M 370.402128 -147.506445 C 376.276567 -147.506445 381.026114 -142.756899 381.026114 -136.944954 C 381.026114 -131.070515 376.276567 -126.320968 370.402128 -126.320968 C 364.590183 -126.320968 359.840637 -131.070515 359.840637 -136.944954 C 359.840637 -142.756899 364.590183 -147.506445 370.402128 -147.506445 Z M 370.402128 -147.506445 " transform="matrix(0.062506,0,0,0.062506,0,13.438783)"/>
<path style="fill-rule:nonzero;fill:rgb(74.117649%,74.117649%,74.117649%);fill-opacity:0.392157;stroke-width:3;stroke-linecap:round;stroke-linejoin:miter;stroke:rgb(12.941177%,12.941177%,12.941177%);stroke-opacity:1;stroke-miterlimit:4;" d="M 370.402128 191.148715 C 376.276567 191.148715 381.026114 195.898261 381.026114 201.7727 C 381.026114 207.584645 376.276567 212.334192 370.402128 212.334192 C 364.590183 212.334192 359.840637 207.584645 359.840637 201.7727 C 359.840637 195.898261 364.590183 191.148715 370.402128 191.148715 Z M 370.402128 191.148715 " transform="matrix(0.062506,0,0,0.062506,0,13.438783)"/>
<path style="fill-rule:nonzero;fill:rgb(74.117649%,74.117649%,74.117649%);fill-opacity:0.392157;stroke-width:3;stroke-linecap:round;stroke-linejoin:miter;stroke:rgb(12.941177%,12.941177%,12.941177%);stroke-opacity:1;stroke-miterlimit:4;" d="M 137.611859 191.148715 C 143.423804 191.148715 148.17335 195.898261 148.17335 201.7727 C 148.17335 207.584645 143.423804 212.334192 137.611859 212.334192 C 131.73742 212.334192 126.987873 207.584645 126.987873 201.7727 C 126.987873 195.898261 131.73742 191.148715 137.611859 191.148715 Z M 137.611859 191.148715 " transform="matrix(0.062506,0,0,0.062506,0,13.438783)"/>
<path style=" stroke:none;fill-rule:nonzero;fill:url(#linear4);" d="M 15.875 6.867188 C 19.164062 6.867188 21.832031 9.53125 21.832031 12.820312 C 21.832031 16.105469 19.164062 18.773438 15.875 18.773438 C 12.589844 18.773438 9.921875 16.105469 9.921875 12.820312 C 9.921875 9.53125 12.589844 6.867188 15.875 6.867188 Z M 15.875 6.867188 "/>
<path style=" stroke:none;fill-rule:nonzero;fill:url(#linear5);" d="M 15.875 6.863281 L 15.875 12.820312 L 21.832031 12.820312 C 21.832031 9.519531 19.175781 6.863281 15.875 6.863281 Z M 15.875 6.863281 "/>
<path style=" stroke:none;fill-rule:nonzero;fill:url(#linear6);" d="M 15.875 12.820312 L 19.929688 17.1875 C 21.101562 16.101562 21.832031 14.546875 21.832031 12.820312 Z M 15.875 12.820312 "/>
<path style=" stroke:none;fill-rule:nonzero;fill:rgb(12.941177%,12.941177%,12.941177%);fill-opacity:1;" d="M 15.875 6.789062 C 12.535156 6.789062 9.847656 9.480469 9.847656 12.820312 C 9.847656 16.160156 12.535156 18.847656 15.875 18.847656 C 19.214844 18.847656 21.90625 16.160156 21.90625 12.820312 C 21.90625 9.480469 19.214844 6.789062 15.875 6.789062 Z M 15.875 6.941406 C 19.132812 6.941406 21.753906 9.5625 21.753906 12.820312 C 21.753906 16.074219 19.132812 18.695312 15.875 18.695312 C 12.621094 18.695312 10 16.074219 10 12.820312 C 10 9.5625 12.621094 6.941406 15.875 6.941406 Z M 15.875 6.941406 "/>
</g>
</svg>

<svg xmlns="http://www.w3.org/2000/svg" width="32pt" height="32pt" viewBox="0 0 32 32"><defs><linearGradient id="a" gradientUnits="userSpaceOnUse" x1="254" y1="233.5" x2="254" y2="254.667" gradientTransform="matrix(.0625 0 0 .0625 0 13.439)"><stop offset="0" stop-opacity=".275"/><stop offset="1" stop-opacity="0"/></linearGradient><radialGradient id="b" gradientUnits="userSpaceOnUse" cx="450.909" cy="189.579" fx="450.909" fy="189.579" r="21.167" gradientTransform="matrix(0 -.07813 -.14064 0 48.823 63.595)"><stop offset="0" stop-opacity=".314"/><stop offset=".222" stop-opacity=".275"/><stop offset="1" stop-opacity="0"/></radialGradient><radialGradient id="c" gradientUnits="userSpaceOnUse" cx="450.909" cy="189.579" fx="450.909" fy="189.579" r="21.167" gradientTransform="matrix(0 .07813 .14064 0 -17.07 -7.527)"><stop offset="0" stop-opacity=".314"/><stop offset=".222" stop-opacity=".275"/><stop offset="1" stop-opacity="0"/></radialGradient><radialGradient id="d" gradientUnits="userSpaceOnUse" cx="450.909" cy="189.579" fx="450.909" fy="189.579" r="21.167" gradientTransform="matrix(0 -.07813 .14064 0 -17.07 63.595)"><stop offset="0" stop-opacity=".314"/><stop offset=".222" stop-opacity=".275"/><stop offset="1" stop-opacity="0"/></radialGradient><radialGradient id="e" gradientUnits="userSpaceOnUse" cx="450.909" cy="189.579" fx="450.909" fy="189.579" r="21.167" gradientTransform="matrix(0 .07813 -.14064 0 48.823 -7.527)"><stop offset="0" stop-opacity=".314"/><stop offset=".222" stop-opacity=".275"/><stop offset="1" stop-opacity="0"/></radialGradient><linearGradient id="f" gradientUnits="userSpaceOnUse" x1="306.917" y1="-25.792" x2="305.955" y2="-141.415" gradientTransform="matrix(.07535 0 0 .21741 -5.854 33.641)"><stop offset="0" stop-color="#9e9e9e"/><stop offset="1" stop-color="#e0e0e0"/></linearGradient><linearGradient id="g" gradientUnits="userSpaceOnUse" x1="254" y1="-105.167" x2="254" y2="85.333" gradientTransform="matrix(.0625 0 0 .0625 0 13.439)"><stop offset="0" stop-color="#2196f3"/><stop offset="1" stop-color="#1e88e5"/></linearGradient><linearGradient id="h" gradientUnits="userSpaceOnUse" x1="254" y1="159.417" x2="254" y2="191.167" gradientTransform="translate(0 -21.167)"><stop offset="0" stop-color="#424242"/><stop offset="1" stop-color="#616161"/></linearGradient><linearGradient id="i" gradientUnits="userSpaceOnUse" x1="254" y1="-105.167" x2="254" y2="85.333" gradientTransform="matrix(.0625 0 0 .0625 0 13.439)"><stop offset="0" stop-color="#2196f3"/><stop offset="1" stop-color="#1e88e5"/></linearGradient><linearGradient id="j" gradientUnits="userSpaceOnUse" x1="1120" y1="775.118" x2="1120" y2="415.118" gradientTransform="rotate(.891) scale(.01654)"><stop offset="0" stop-color="#ffd54f"/><stop offset="1" stop-color="#ffe082"/></linearGradient><linearGradient id="k" gradientUnits="userSpaceOnUse" x1="1040" y1="495.117" x2="1040" y2="775.117" gradientTransform="matrix(.01654 0 0 -.01654 0 25.638)"><stop offset="0" stop-color="#f44336"/><stop offset="1" stop-color="#e57373"/></linearGradient></defs><path d="M9.262 28.035h13.23v1.32H9.262zm0 0" fill="url(#a)"/><path d="M22.492 28.035h2.645v-1.324h-2.645zm0 0" fill="url(#b)"/><path d="M9.262 28.035H6.613v1.32h2.649zm0 0" fill="url(#c)"/><path d="M9.262 28.035H6.613v-1.324h2.649zm0 0" fill="url(#d)"/><path d="M22.492 28.035h2.645v1.32h-2.645zm0 0" fill="url(#e)"/><path d="M7.938 2.895h15.878c.73 0 1.32.593 1.32 1.324V26.71c0 .73-.59 1.324-1.32 1.324H7.938c-.731 0-1.325-.594-1.325-1.324V4.219c0-.73.594-1.324 1.324-1.324zm0 0" fill="url(#f)"/><path d="M7.938 28.035c-.731 0-1.325-.59-1.325-1.324v-.164c0 .73.594 1.32 1.324 1.32h15.88c.73 0 1.32-.59 1.32-1.32v.164a1.32 1.32 0 0 1-1.32 1.324zm0 0" fill-opacity=".196"/><path d="M7.938 2.895c-.731 0-1.325.59-1.325 1.324v.164c0-.73.594-1.324 1.324-1.32h15.88c.73-.004 1.32.59 1.32 1.32v-.164a1.32 1.32 0 0 0-1.32-1.324zm0 0" fill="#e6e6e6" fill-opacity=".937"/><path d="M7.938 2.8c-.782 0-1.415.638-1.415 1.419V26.71c0 .785.633 1.418 1.415 1.418h15.878c.782 0 1.414-.633 1.414-1.418V4.219c0-.782-.632-1.418-1.414-1.418zm0 .188h15.878c.68 0 1.227.547 1.227 1.23v22.493c0 .684-.547 1.23-1.227 1.23H7.938a1.222 1.222 0 0 1-1.227-1.23V4.219c0-.684.543-1.23 1.226-1.23zm0 0" fill="#212121"/><path d="M15.875 6.867a5.955 5.955 0 0 1 5.957 5.953 5.957 5.957 0 0 1-5.957 5.953 5.954 5.954 0 0 1 0-11.906zm0 0" fill="url(#g)"/><path d="M158.735 138.279h190.544c5.812 0 10.562 4.687 10.562 10.561v10.562c0 5.874-4.75 10.624-10.562 10.624H158.735c-5.812 0-10.562-4.75-10.562-10.624V148.84c0-5.874 4.75-10.561 10.562-10.561zm0 0" transform="matrix(.0625 0 0 .0625 0 13.439)" fill="url(#h)" stroke-width="3" stroke-linecap="round" stroke="#212121"/><path d="M8.602 4.219a.662.662 0 1 1-.004 1.323.662.662 0 0 1 .004-1.323zm0 0M23.152 4.219a.663.663 0 1 1 .003 1.325.663.663 0 0 1-.003-1.325zm0 0M23.152 25.387a.663.663 0 1 1 0 0zm0 0M8.602 25.387a.663.663 0 1 1-.005 1.325.663.663 0 0 1 .005-1.325zm0 0" fill="#bdbdbd" fill-opacity=".392" stroke-width=".18752999999999997" stroke-linecap="round" stroke="#212121"/><path d="M15.875 6.867a5.955 5.955 0 0 1 5.957 5.953 5.957 5.957 0 0 1-5.957 5.953 5.954 5.954 0 0 1 0-11.906zm0 0" fill="url(#i)"/><path d="M15.875 6.863v5.957h5.957c0-3.3-2.656-5.957-5.957-5.957zm0 0" fill="url(#j)"/><path d="M15.875 12.82l4.055 4.367a5.934 5.934 0 0 0 1.902-4.367zm0 0" fill="url(#k)"/><path d="M15.875 6.79a6.017 6.017 0 0 0-6.027 6.03 6.013 6.013 0 0 0 6.027 6.028 6.017 6.017 0 0 0 6.031-6.028 6.02 6.02 0 0 0-6.031-6.03zm0 .151a5.865 5.865 0 0 1 5.879 5.88 5.864 5.864 0 0 1-5.879 5.874A5.863 5.863 0 0 1 10 12.82a5.864 5.864 0 0 1 5.875-5.879zm0 0" fill="#212121"/></svg>
